kturtle-script-v1.0
@(reset) 
@(sh)

@(go) 20@(,)380
@(dir) 0
@(fw) 360
@(go) 20@(,)380
@(dir) 90
@(fw) 360
@(go) 380@(,)380
@(dir) -60
@(fw) 25
@(go) 380@(,)380
@(dir) -120
@(fw) 25
@(go) 20@(,)20
@(dir) 210
@(fw) 25
@(go) 20@(,)20
@(dir) 150
@(fw) 25
@(go) 20@(,)380
@(dir) 0
@(print) 0
$i=1
@(repeat) 15 {
@(dir) 90
@(fw) 20
@(dir) 0
@(print) $i
$i=$i+1
}
@(go) -3@(,) 360
$i=1
@(repeat) 15 {
@(dir) 0
@(goy) @(gety)-20
@(dir) 0
@(print) $i
$i=$i+1
}