kturtle-script-v1.0
@(reset)

@(go) 24@(,)388
@(go) 200@(,) 400
@(forward) 200
@(learn) circle  {
  @(repeat) 360 {
      @(forward) 0.2
      @(turnleft) 1
    }
}
@(pu) 
@(go) 0@(,) 200
@(pd)
@(turnright) 90
@(forward) 400
@(learn) input {
  
